svg/black/btx.svg

<svg xmlns="http://www.w3.org/2000/svg" width="32" height="32" viewBox="0 0 32 32">
  <path fill-rule="evenodd" d="M16,32 C7.163444,32 0,24.836556 0,16 C0,7.163444 7.163444,0 16,0 C24.836556,0 32,7.163444 32,16 C32,24.836556 24.836556,32 16,32 Z M22.632123,14.0201846 C22.945723,11.9239385 21.3496614,10.7970462 19.1672614,10.0452923 L19.8751999,7.20566154 L18.1467076,6.77489231 L17.4574768,9.53969231 C17.0030768,9.42646154 16.5363691,9.31963077 16.0726153,9.21378462 L16.7667691,6.43076923 L15.0392614,6 L14.3308307,8.83864615 C13.9547076,8.75298462 13.5854768,8.66830769 13.2270768,8.5792 L13.2290461,8.57033846 L10.8452922,7.97513846 L10.3854768,9.82129231 C10.3854768,9.82129231 11.6679384,10.1152 11.6408614,10.1334154 C12.340923,10.3081846 12.4674461,10.7714462 12.4462768,11.1387077 L11.6398768,14.3736615 C11.688123,14.3859692 11.7506461,14.4036923 11.8195691,14.4312615 C11.7619691,14.4169846 11.7004307,14.4012308 11.636923,14.3859692 L10.5065845,18.9176615 C10.420923,19.1303385 10.2038153,19.4493538 9.71446144,19.3282462 C9.73169221,19.3533538 8.45809221,19.0146462 8.45809221,19.0146462 L7.5999999,20.9932308 L9.84935375,21.5539692 C10.2678153,21.6588308 10.6779076,21.7686154 11.0815999,21.872 L10.3662768,24.7441231 L12.0927999,25.1748923 L12.8012307,22.3332923 C13.2728614,22.4612923 13.7307076,22.5794462 14.1787076,22.6907077 L13.4727384,25.5190154 L15.2012307,25.9497846 L15.9165538,23.0830769 C18.8639999,23.6408615 21.0803691,23.4158769 22.0132922,20.7500308 C22.7650461,18.6035692 21.9758768,17.3654154 20.4251076,16.5580308 C21.5544614,16.2976 22.4051691,15.5547077 22.632123,14.0201846 Z M18.6828307,19.5581538 C18.1486768,21.7046154 14.5346461,20.5442462 13.3629538,20.2532923 L14.312123,16.4482462 C15.4838153,16.7406769 19.2411076,17.3196308 18.6828307,19.5581538 Z M19.2174768,13.9891692 C18.7300922,15.9416615 15.7220922,14.9496615 14.7463384,14.7064615 L15.6068922,11.2553846 C16.5826461,11.4985846 19.7250461,11.9524923 19.2174768,13.9891692 Z M24.2470312,21.6176938 L24.4008977,20.9512246 C24.2102185,20.9236238 24.0376772,20.9330516 23.8832685,20.9795083 C23.7288598,21.025965 23.5926643,21.1002301 23.4746778,21.2023057 C23.3566914,21.3043813 23.2570679,21.4291678 23.1758044,21.5766687 C23.0945409,21.7241696 23.0336644,21.8856114 22.993173,22.0609989 C22.9355852,22.3104389 22.9273191,22.537394 22.9683744,22.7418712 C23.0094298,22.9463483 23.0886374,23.1278155 23.2059998,23.2862784 C23.3233622,23.4447412 23.4742288,23.5780957 23.6586044,23.686346 C23.8429799,23.7945962 24.0481921,23.8748146 24.2742471,23.9270035 C24.4964046,23.9782926 24.7103923,23.9938278 24.9162166,23.9736097 C25.122041,23.9533916 25.3085279,23.896895 25.475683,23.8041182 C25.6428381,23.7113414 25.7872835,23.5835611 25.9090233,23.4207735 C26.0307632,23.2579858 26.1190759,23.0577212 26.1739642,22.8199737 C26.2639451,22.4302238 26.2318971,22.0933846 26.0778193,21.8094461 C25.9237415,21.5255076 25.6570813,21.3069213 25.2778308,21.1536806 L25.1239643,21.8201497 C25.3350258,21.901719 25.4863436,22.0197833 25.5779224,22.1743461 C25.6695011,22.3289089 25.6927948,22.5036252 25.6478044,22.6985002 C25.6145115,22.8427077 25.5559628,22.9585037 25.4721565,23.0458916 C25.3883502,23.1332796 25.2903064,23.1978793 25.1780221,23.2396929 C25.0657377,23.2815064 24.9438631,23.3026315 24.8123945,23.3030689 C24.680926,23.3035063 24.5528336,23.2893282 24.4281136,23.2605343 C24.1981612,23.2074456 24.0183569,23.1371983 23.8886955,23.0497903 C23.7590341,22.9623823 23.6637034,22.8685329 23.6027006,22.7682393 C23.5416979,22.6679458 23.507829,22.5657075 23.501093,22.4615214 C23.4943569,22.3573354 23.5008867,22.2623713 23.5206825,22.1766263 C23.5638733,21.9895463 23.6473838,21.8456455 23.7712166,21.7449195 C23.8950493,21.6441936 24.0536526,21.6017854 24.2470312,21.6176938 Z M26.9392477,19.5051668 C26.9950359,19.2635218 27.0048008,19.0389653 26.9685428,18.8314904 C26.9322847,18.6240156 26.8590736,18.4388013 26.7489072,18.275842 C26.6387408,18.1128826 26.4940956,17.9748067 26.3149673,17.86161 C26.135839,17.7484133 25.9293529,17.664822 25.6955029,17.6108334 C25.4655504,17.5577447 25.2452667,17.5428085 25.034645,17.5660243 C24.8240234,17.5892401 24.6334886,17.6499337 24.4630351,17.7481068 C24.2925815,17.8462799 24.1455872,17.9806558 24.0220477,18.1512385 C23.8985082,18.3218211 23.8088458,18.5279318 23.7530576,18.7695768 C23.6972695,19.0112218 23.6875046,19.2357783 23.7237626,19.4432532 C23.7600206,19.650728 23.8332317,19.8359423 23.9433981,19.9989016 C24.0535645,20.161861 24.1982097,20.2999369 24.3773381,20.4131336 C24.5564664,20.5263303 24.7610037,20.6094718 24.9909562,20.6625605 C25.2248062,20.716549 25.4470387,20.7319351 25.6576603,20.7087193 C25.868282,20.6855035 26.0588167,20.6248099 26.2292703,20.5266368 C26.3997239,20.4284637 26.5467182,20.2940878 26.6702577,20.1235052 C26.7937971,19.9529225 26.8834596,19.7468118 26.9392477,19.5051668 Z M24.3154002,16.7072183 L27.3378961,17.4050164 L27.4917626,16.7385473 L26.0535924,16.4065196 C25.8859999,16.3678278 25.742846,16.3121996 25.6241264,16.2396334 C25.5054068,16.1670673 25.4107498,16.0836363 25.3401524,15.9893381 C25.269555,15.8950399 25.2233189,15.7930254 25.2014428,15.6832913 C25.1795667,15.5735573 25.1816758,15.4621782 25.2077703,15.3491507 C25.218568,15.3023807 25.2325136,15.2553119 25.2496074,15.2079428 C25.2667013,15.1605738 25.2845443,15.1144048 25.303137,15.0694344 L24.6600528,14.9209667 C24.6489568,14.9512469 24.6380859,14.9805523 24.6274399,15.0088837 C24.6167938,15.0372152 24.6024729,15.0903551 24.5844767,15.1683051 C24.5610817,15.2696401 24.5576241,15.3735238 24.5741039,15.4799594 C24.5905837,15.586395 24.6217544,15.686984 24.6676171,15.7817296 C24.7134798,15.8764752 24.7688617,15.9611017 24.8337644,16.0356116 C24.8986672,16.1101215 24.9697917,16.1665674 25.0471402,16.2049509 L25.0444408,16.2166433 L24.4598187,16.0816727 L24.3154002,16.7072183 Z M26.5943321,14.5177505 L27.1072205,12.2961867 C26.8874642,12.2167153 26.6648589,12.1807173 26.4393979,12.1881914 C26.213937,12.1956656 26.0049652,12.242866 25.8124763,12.329794 C25.6199875,12.4167221 25.4522321,12.543226 25.3092051,12.7093096 C25.1661781,12.8753932 25.067222,13.0773057 25.0123336,13.3150532 C24.9601447,13.5411082 24.9562272,13.7536729 25.000581,13.9527537 C25.0449348,14.1518345 25.1255667,14.3315779 25.2424792,14.4919895 C25.3593916,14.6524011 25.5064355,14.7889782 25.683615,14.901725 C25.8607946,15.0144717 26.0565627,15.0955887 26.2709252,15.1450781 C26.5047752,15.1990667 26.7265578,15.2164015 26.9362796,15.1970832 C27.1460014,15.1777649 27.3356364,15.1209688 27.5051902,15.0266931 C27.6747439,14.9324175 27.8196392,14.8026885 27.9398802,14.6375022 C28.0601212,14.4723159 28.1476845,14.270852 28.2025729,14.0331045 C28.2403648,13.8694095 28.2541713,13.7073637 28.2439927,13.5469621 C28.2338141,13.3865606 28.1988255,13.235828 28.1390258,13.0947598 C28.0792261,12.9536916 27.9949167,12.8254401 27.886095,12.7100014 C27.7772733,12.5945627 27.6450661,12.5004101 27.4894693,12.4275406 L27.3437011,13.0589324 C27.4977964,13.1560867 27.6030186,13.2737719 27.6593706,13.4119915 C27.7157227,13.5502111 27.7214035,13.7167559 27.676413,13.9116309 C27.6440199,14.0519409 27.5917672,14.1671379 27.5196535,14.2572253 C27.4475397,14.3473126 27.362912,14.4160361 27.2657677,14.4633976 C27.1686235,14.5107591 27.0616638,14.5384065 26.9448854,14.5463406 C26.828107,14.5542747 26.7112571,14.5447448 26.5943321,14.5177505 Z M26.4130879,19.3836932 C26.3788952,19.5317982 26.3180224,19.6532154 26.2304678,19.7479485 C26.1429131,19.8426815 26.0403716,19.913427 25.92284,19.9601869 C25.8053085,20.0069469 25.679386,20.032269 25.5450689,20.0361539 C25.4107518,20.0400389 25.2773377,20.0266848 25.1448227,19.9960914 C25.0162052,19.9663977 24.8914138,19.9201403 24.7704447,19.8573179 C24.6494756,19.7944954 24.5473977,19.7165353 24.464208,19.6234352 C24.3810183,19.5303351 24.3208417,19.4220232 24.2836764,19.2984962 C24.246511,19.1749693 24.2450247,19.0391554 24.2792175,18.8910504 C24.3134102,18.7429454 24.374283,18.6215282 24.4618376,18.5267952 C24.5493922,18.4320621 24.6509594,18.3610917 24.7665422,18.3138818 C24.882125,18.266672 25.0080475,18.2413499 25.1443133,18.2379148 C25.2805792,18.2344798 25.4130189,18.2476089 25.5416364,18.2773026 C25.6741514,18.3078961 25.7999172,18.3543784 25.9189376,18.4167509 C26.0379579,18.4791234 26.1400358,18.5570835 26.2251742,18.6506336 C26.3103127,18.7441836 26.3714636,18.8527204 26.408629,18.9762474 C26.4457943,19.0997743 26.4472806,19.2355882 26.4130879,19.3836932 Z M26.5148875,12.8614279 L26.1558656,14.4165225 C26.0437379,14.3865306 25.9436808,14.3398258 25.8556913,14.2764068 C25.7677018,14.2129879 25.6955296,14.1388532 25.6391725,14.0540004 C25.5828154,13.9691477 25.5451982,13.8742544 25.5263198,13.7693177 C25.5074413,13.664381 25.5114992,13.5534518 25.5384935,13.4365268 C25.5645879,13.3234993 25.6106178,13.2263653 25.6765846,13.1451218 C25.7425513,13.0638784 25.8190089,12.9994265 25.9059594,12.9517642 C25.99291,12.9041019 26.0893767,12.8730057 26.1953624,12.8584747 C26.3013481,12.8439437 26.4078554,12.8449281 26.5148875,12.8614279 Z"/>
</svg>

<svg xmlns="http://www.w3.org/2000/svg" width="32" height="32"><path fill-rule="evenodd" d="M16 32C7.163 32 0 24.837 0 16S7.163 0 16 0s16 7.163 16 16-7.163 16-16 16zm6.632-17.98c.314-2.096-1.282-3.223-3.465-3.975l.708-2.84-1.728-.43-.69 2.765c-.454-.114-.92-.22-1.384-.326l.694-2.783L15.039 6l-.708 2.839c-.376-.086-.746-.17-1.104-.26l.002-.009-2.384-.595-.46 1.846s1.283.294 1.256.312c.7.175.826.638.805 1.006l-.806 3.235c.048.012.11.03.18.057l-.183-.045-1.13 4.532c-.086.212-.303.531-.793.41.018.025-1.256-.313-1.256-.313L7.6 20.993l2.25.561c.418.105.828.215 1.232.318l-.716 2.872 1.727.43.708-2.84c.472.127.93.245 1.378.357l-.706 2.828 1.728.43.716-2.866c2.947.558 5.163.333 6.096-2.333.752-2.146-.037-3.385-1.588-4.192 1.13-.26 1.98-1.003 2.207-2.538zm-3.95 5.538c-.533 2.147-4.147.986-5.319.695l.95-3.805c1.17.293 4.928.872 4.37 3.11zm.535-5.569c-.487 1.953-3.495.96-4.47.717l.86-3.45c.976.243 4.118.696 3.61 2.733zm5.03 7.629l.154-.667a1.192 1.192 0 0 0-.518.029c-.154.046-.29.12-.408.222a1.351 1.351 0 0 0-.3.375 1.87 1.87 0 0 0-.182.484 1.61 1.61 0 0 0-.025.68c.041.205.12.387.238.545.117.159.268.292.453.4.184.109.39.189.615.241.222.051.436.067.642.047a1.367 1.367 0 0 0 .993-.553c.122-.163.21-.363.265-.601.09-.39.058-.727-.096-1.01-.154-.284-.42-.503-.8-.656l-.154.666c.211.082.362.2.454.354.092.155.115.33.07.525a.726.726 0 0 1-.47.54 1.05 1.05 0 0 1-.366.064c-.131 0-.26-.014-.384-.042a1.628 1.628 0 0 1-.54-.211.942.942 0 0 1-.285-.282.67.67 0 0 1-.102-.306c-.007-.105 0-.2.02-.285a.754.754 0 0 1 .25-.432.642.642 0 0 1 .476-.127zm2.692-2.113a1.69 1.69 0 0 0 .03-.674 1.414 1.414 0 0 0-.22-.555 1.45 1.45 0 0 0-.434-.414 1.986 1.986 0 0 0-.62-.251 1.967 1.967 0 0 0-.66-.045 1.45 1.45 0 0 0-.572.182c-.17.098-.317.233-.441.403a1.69 1.69 0 0 0-.269.619 1.69 1.69 0 0 0-.03.673c.037.208.11.393.22.556.11.163.255.3.434.414.18.113.384.196.614.25.234.054.456.069.667.046a1.45 1.45 0 0 0 .571-.182c.17-.099.318-.233.441-.403a1.69 1.69 0 0 0 .27-.619zm-2.624-2.798l3.023.698.154-.666-1.438-.332a1.441 1.441 0 0 1-.43-.167 1 1 0 0 1-.284-.25.751.751 0 0 1-.132-.64c.01-.048.025-.095.042-.142l.053-.139-.643-.148-.033.088c-.01.028-.025.081-.043.16a.817.817 0 0 0-.01.311 1.14 1.14 0 0 0 .26.556.692.692 0 0 0 .213.169l-.003.012-.584-.135-.145.625zm2.28-2.19l.512-2.22a1.775 1.775 0 0 0-.668-.109 1.64 1.64 0 0 0-.627.142c-.192.087-.36.213-.503.38a1.39 1.39 0 0 0-.297.605 1.429 1.429 0 0 0-.011.638c.044.199.125.379.241.539.117.16.264.297.442.41a2.096 2.096 0 0 0 1.253.295 1.34 1.34 0 0 0 1.004-.56c.12-.165.207-.366.262-.604.037-.164.051-.326.041-.486a1.373 1.373 0 0 0-.105-.452 1.294 1.294 0 0 0-.65-.667l-.145.63c.154.098.259.216.315.354a.822.822 0 0 1 .017.5.851.851 0 0 1-.156.345.737.737 0 0 1-.254.206.858.858 0 0 1-.321.083 1.191 1.191 0 0 1-.35-.028zm-.182 4.867a.785.785 0 0 1-.49.576 1.1 1.1 0 0 1-.378.076 1.57 1.57 0 0 1-.775-.179 1.061 1.061 0 0 1-.306-.234.785.785 0 0 1-.185-.732.785.785 0 0 1 .488-.577c.115-.047.241-.073.377-.076a1.582 1.582 0 0 1 .775.179 1.1 1.1 0 0 1 .306.234.785.785 0 0 1 .188.733zm.102-6.523l-.36 1.556a.91.91 0 0 1-.516-.363.748.748 0 0 1-.113-.285.822.822 0 0 1 .15-.624.773.773 0 0 1 .52-.287c.105-.014.212-.013.319.003z"/></svg>
